X: 1
T: LADY NELLIE WEMYSS
O: Kerr's 2nd
R: jig
N: "Scotch Jig"
Z: 2007 John Chambers <jc:trillian.mit.edu>
B: Kerr 2nd (c.1880) p.211 #317
M: 6/8
L: 1/8
K: A
   B \
| c2e ega | cAc e2d | cde ef=g | B=GB d2B \
| c2e efg | agf edc | dfd cac  | B=GB d2 :|
|: B \
| acA ecA | acA efg | acA ecA  | B=GB d2B \
| acA ecA | agf edc | dfd cac  | B=GB d2 :|
